other/eruda.svg

<?xml version="1.0" encoding="UTF-8" standalone="no"?>
<svg
   viewBox="0 0 48 48"
   version="1.1"
   id="svg8"
   xml:space="preserve"
   xmlns="http://www.w3.org/2000/svg"
   xmlns:svg="http://www.w3.org/2000/svg"><defs
     id="defs4"><style
       id="style2">.a{fill:none;stroke:#fff;stroke-linecap:round;stroke-linejoin:round;}</style></defs><circle
     style="opacity:1;fill:none;stroke:#ffffff;stroke-width:1.12838;stroke-linecap:round;stroke-linejoin:round"
     id="path298"
     cx="24"
     cy="24"
     r="14.666296" /><path
     id="path354"
     style="opacity:1;fill:none;stroke:#ffffff;stroke-width:1.12838;stroke-linecap:round;stroke-linejoin:round"
     d="m 42.294284,23.725767 c -0.107167,2.920595 0.09933,4.121212 2.705612,4.594228 -0.285535,1.395369 -0.706672,2.741374 -1.249006,4.023615 -0.542367,1.282242 -1.205904,2.500768 -1.976338,3.641131 -1.742651,-1.701615 -2.626582,-1.231954 -4.861103,1.053354 -1.839192,1.881037 -2.38103,2.395494 -0.928707,4.736455 -1.140363,0.770435 -2.358889,1.433972 -3.641131,1.976339 -1.282241,0.542334 -2.628246,0.963471 -4.023615,1.249006 C 27.822041,42.343745 26.902061,42.297797 24,42.244419 21.198043,42.192869 20.128081,42.293833 19.680004,44.999895 18.284635,44.71436 16.93863,44.293223 15.656389,43.750889 14.374147,43.208522 13.155621,42.544985 12.015258,41.77455 13.84152,39.732729 13.252919,39.254341 11.236136,37.063034 9.0198909,34.472848 8.5165588,34.13355 6.2254419,35.984741 5.4550231,34.844378 4.7914583,33.625852 4.2491137,32.34361 3.706769,31.061369 3.2856442,29.715364 3.0001054,28.319995 6.0800429,28.021503 6.1160258,27.543502 5.9799496,23.700828 5.8743344,20.718371 5.7559601,20.128079 3.0001054,19.680003 3.2856442,18.284634 3.706769,16.938629 4.2491137,15.656388 4.7914583,14.374146 5.4550231,13.15562 6.2254419,12.015257 8.8735851,13.772245 9.221928,13.428885 11.211197,11.410611 13.368963,9.2213836 13.936169,8.6047029 12.015258,6.2254421 13.155621,5.4550234 14.374147,4.7914586 15.656389,4.249114 16.93863,3.7067692 18.284635,3.2856444 19.680004,3.0001057 19.9805,5.2284715 20.776005,5.7911111 24,5.8303731 c 3.556286,0.043292 4.22549,-1.0645311 4.319996,-2.8302674 1.395369,0.2855387 2.741374,0.7066635 4.023615,1.2490083 1.282242,0.5423446 2.500768,1.2059094 3.641131,1.9763281 -1.178091,1.6180202 -1.398609,2.8955957 0.729292,4.8112299 2.456686,2.211637 3.342806,2.480737 5.060518,0.978585 0.770434,1.140363 1.433971,2.358889 1.976338,3.641131 0.542334,1.282241 0.963471,2.628246 1.249006,4.023615 -2.359062,0.177663 -2.606068,1.331269 -2.705612,4.045764 z" /><path
     style="opacity:1;fill:none;stroke:#ffffff;stroke-width:1.07541;stroke-linecap:round;stroke-linejoin:round"
     d="m 17.466036,16.066027 2.23401,2.091393 -1.853792,1.877495 -2.305291,-2.043873 c 0.110774,3.581128 1.788249,3.194926 3.184642,4.087746 l 7.414996,7.153585 c 0.752724,2.584898 1.761665,4.737316 4.515589,3.945177 l -2.020113,-2.21025 1.782407,-1.901303 2.115201,2.020112 c 0.450466,-2.011828 -0.336267,-4.100002 -3.636189,-4.610581 l -7.034777,-6.892161 c -0.764726,-2.39244 -1.542935,-4.057921 -4.396683,-3.51734 z"
     id="path507" /><path
     style="opacity:1;fill:none;stroke:#ffffff;stroke-width:1.08436;stroke-linecap:round;stroke-linejoin:round"
     d="m 31.823538,14.445954 -5.490301,6.134274 0.915064,0.881155 6.405368,-5.422529 z"
     id="path509" /><path
     style="opacity:1;fill:none;stroke:#ffffff;stroke-width:1.02558;stroke-linecap:round;stroke-linejoin:round"
     d="m 19.805408,24.814528 -4.550924,4.390654 c -0.26255,0.253277 -0.134435,1.303379 0.160218,1.922947 0.227133,0.47751 1.121714,1.121719 1.121714,1.121719 0.982245,0.612882 1.589798,0.382733 2.24343,0.256362 l 4.32659,-4.518887 -2.85236,1.185831 1.057647,-2.628033 -2.531877,1.089682 z"
     id="path511" /></svg>

<?xml version="1.0" encoding="UTF-8"?><svg id="b" xmlns="http://www.w3.org/2000/svg" viewBox="0 0 48 48"><defs><style>.h{fill:none;stroke:#fff;stroke-linecap:round;stroke-linejoin:round;}</style></defs><circle id="c" class="h" cx="24" cy="24" r="14.6663"/><path id="d" class="h" d="m42.2943,23.7258c-.1072,2.9206.0993,4.1212,2.7056,4.5942-.2855,1.3954-.7067,2.7414-1.249,4.0236-.5424,1.2822-1.2059,2.5008-1.9763,3.6411-1.7426-1.7016-2.6266-1.232-4.8611,1.0534-1.8392,1.881-2.381,2.3955-.9287,4.7365-1.1404.7704-2.3589,1.434-3.6411,1.9763-1.2822.5423-2.6282.9635-4.0236,1.249-.498-2.6561-1.4179-2.7021-4.32-2.7555-2.802-.0516-3.8719.0494-4.32,2.7555-1.3954-.2855-2.7414-.7067-4.0236-1.249-1.2822-.5424-2.5008-1.2059-3.6411-1.9763,1.8263-2.0418,1.2377-2.5202-.7791-4.7115-2.2162-2.5902-2.7196-2.9295-5.0107-1.0783-.7704-1.1404-1.434-2.3589-1.9763-3.6411-.5423-1.2822-.9635-2.6282-1.249-4.0236,3.0799-.2985,3.1159-.7765,2.9798-4.6192-.1056-2.9825-.224-3.5728-2.9798-4.0208.2855-1.3954.7067-2.7414,1.249-4.0236.5423-1.2822,1.2059-2.5008,1.9763-3.6411,2.6481,1.757,2.9965,1.4136,4.9858-.6046,2.1578-2.1892,2.725-2.8059.8041-5.1852,1.1404-.7704,2.3589-1.434,3.6411-1.9763,1.2822-.5423,2.6282-.9635,4.0236-1.249.3005,2.2284,1.096,2.791,4.32,2.8303,3.5563.0433,4.2255-1.0645,4.32-2.8303,1.3954.2855,2.7414.7067,4.0236,1.249s2.5008,1.2059,3.6411,1.9763c-1.1781,1.618-1.3986,2.8956.7293,4.8112,2.4567,2.2116,3.3428,2.4807,5.0605.9786.7704,1.1404,1.434,2.3589,1.9763,3.6411.5423,1.2822.9635,2.6282,1.249,4.0236-2.3591.1777-2.6061,1.3313-2.7056,4.0458Z"/><path id="e" class="h" d="m17.466,16.066l2.234,2.0914-1.8538,1.8775-2.3053-2.0439c.1108,3.5811,1.7882,3.1949,3.1846,4.0877l7.415,7.1536c.7527,2.5849,1.7617,4.7373,4.5156,3.9452l-2.0201-2.2103,1.7824-1.9013,2.1152,2.0201c.4505-2.0118-.3363-4.1-3.6362-4.6106l-7.0348-6.8922c-.7647-2.3924-1.5429-4.0579-4.3967-3.5173Z"/><path id="f" class="h" d="m31.8235,14.446l-5.4903,6.1343.9151.8812,6.4054-5.4225-1.8301-1.5929Z"/><path id="g" class="h" d="m19.8054,24.8145l-4.5509,4.3907c-.2626.2533-.1344,1.3034.1602,1.9229.2271.4775,1.1217,1.1217,1.1217,1.1217.9822.6129,1.5898.3827,2.2434.2564l4.3266-4.5189-2.8524,1.1858,1.0576-2.628-2.5319,1.0897,1.0256-2.8203Z"/></svg>
